app/dist/common/images/gateway-real-estate-ag.svg

<svg height="18" viewBox="0 0 18 18" width="18" xmlns="http://www.w3.org/2000/svg"><path d="m0 0h18v18h-18z" fill="#f0f3fa"/><path d="m13.74 8.04-2.53-.68v.8l2.07.56v3.5h-4.54v-.42h1.64l.34-.38v-7.05l-.44-.37-7.02 2.07h-.01l-.25.36v5l.35.37h4.65v.82l.37.38h5.28l.35-.38v-4.22zm-10.03 2.96v-4.26l6.29-1.85v2.08l-1.53-.37h-.01l-.46.38v3.02h.74v-2.5l1.26.28v3.22z" fill="#abad23"/></svg>

<!-- by TradingView --><svg width="18" height="18" viewBox="0 0 18 18" xmlns="http://www.w3.org/2000/svg"><path fill="#F0F3FA" d="M0 0h18v18H0z"/><path d="m13.74 8.04-2.53-.68v.8l2.07.56v3.5H8.74v-.42h1.64l.34-.38V4.37L10.28 4 3.26 6.07h-.01L3 6.43v5l.35.37H8v.82l.37.38h5.28l.35-.38V8.4l-.26-.36ZM3.71 11V6.74L10 4.89v2.08L8.47 6.6h-.01L8 6.98V10h.74V7.5l1.26.28V11H3.71Z" fill="#ABAD23"/></svg>
